X:14133
T:Reel des Ouvrieres
C:Joseph Allard
M:2/4
L:1/16
K:G
(3DEF|G2BG dGBG|ABcd cBAG|Bdgd egdB|cBAG FADF|!
G2BG dGBG|ABcd cBAG|Bdgd egdB|cAFA G2:|!
|:ef|g2dg Bgdg|gabg agef|g2dg BgdB|cBAG Fdef|!
g2dg Bgdg|gabg agef|gfga gfed|egfa g2:|!
